X:15
T:Sun Beams THO3.015, The
O:England;London
M:C|
L:1/8
Z:vmp. Peter Dunk 2011.from a transcription by Fynn Titford-Mock 2006-9
B:Thompson's Compleat Collection of 200 Favourite Country Dances Vol. III.1765-72
Q:1/2=80
K:F
c|fcAd cAFE|DdBG cAFc|fcAd cAFE|DdBG F3:|
|:c|fcfa gecf|gegb agfg|afda gecg|aded c3 B|
Acfg ag/f/ gA|Bdga bgec|fcAd cAFE|DdBG F3:|

